Sources/FrostedUI/Resources/Icons.xcassets/bannerPhoto32.imageset/banner-photo-32.svg

<svg width="32" height="32" viewBox="0 0 32 32" fill="none" xmlns="http://www.w3.org/2000/svg" data-fui-icon="true">
  <path
    d="M24.7272 5.35901C28.1537 5.35906 30.931 8.13667 30.9313 11.5631V20.2906C30.9313 21.9853 30.2512 23.5204 29.15 24.6403C28.3908 25.965 26.9677 26.8872 25.2828 26.8873H16.818C16.5525 26.8873 16.3171 26.7602 16.1676 26.5641H7.27209C3.80832 26.5637 1.00004 23.7554 0.999634 20.2916V18.9274C0.999635 18.9231 1.00054 18.9189 1.00061 18.9147C1.00125 18.8725 1.00518 18.8305 1.01233 18.7887C1.01317 18.7838 1.01335 18.7789 1.01428 18.774C1.02249 18.7308 1.03414 18.688 1.04944 18.6461C1.05029 18.6438 1.05149 18.6416 1.05237 18.6393L1.06799 18.6002V11.5631C1.06823 8.13686 3.84587 5.35937 7.27209 5.35901H24.7272ZM7.27209 6.85901C4.6743 6.85937 2.56823 8.96529 2.56799 11.5631V16.8326L5.63245 13.3424C5.73754 13.2227 5.84834 13.1092 5.96448 13.0026C6.08058 12.8959 6.20184 12.7958 6.32776 12.7028C6.70524 12.4238 7.12415 12.2071 7.56799 12.0602C7.72895 12.0069 7.89343 11.9639 8.06018 11.9293C8.35307 11.8686 8.65354 11.8366 8.95764 11.8365L9.18616 11.8424C9.48924 11.8581 9.78792 11.9042 10.0778 11.9801C10.223 12.0181 10.3662 12.0634 10.5065 12.1158C11.0666 12.3252 11.5831 12.6476 12.0211 13.068C12.076 13.1206 12.129 13.1754 12.1813 13.2311L16.6324 17.9674L18.3287 15.8639C18.994 15.0389 19.949 14.5109 20.9869 14.3766C21.1591 14.3542 21.3335 14.3414 21.5094 14.3414H21.5114C22.6587 14.3414 23.7535 14.824 24.528 15.6705L29.3805 20.9772C29.4133 20.753 29.4313 20.5239 29.4313 20.2906V11.5631C29.431 8.9651 27.3252 6.85906 24.7272 6.85901H7.27209Z"
    fill="currentColor"
  />
</svg>

<svg xmlns="http://www.w3.org/2000/svg" width="32" height="32" fill="none" data-fui-icon="true" viewBox="0 0 32 32"><path fill="currentColor" d="M24.727 5.359a6.204 6.204 0 0 1 6.204 6.204v8.728c0 1.694-.68 3.23-1.781 4.35a4.44 4.44 0 0 1-3.867 2.246h-8.465a.82.82 0 0 1-.65-.323H7.272A6.274 6.274 0 0 1 1 20.292v-1.377a1 1 0 0 1 .012-.126l.002-.015a1 1 0 0 1 .035-.128l.003-.007.016-.039v-7.037A6.205 6.205 0 0 1 7.272 5.36zm-17.455 1.5a4.705 4.705 0 0 0-4.704 4.704v5.27l3.064-3.49a4.4 4.4 0 0 1 2.428-1.414q.44-.09.898-.093l.228.006a4.42 4.42 0 0 1 2.995 1.39l4.451 4.735 1.697-2.103a4.09 4.09 0 0 1 3.18-1.523h.002a4.1 4.1 0 0 1 3.017 1.33l4.853 5.306a5 5 0 0 0 .05-.686v-8.728a4.704 4.704 0 0 0-4.704-4.704z"/></svg>
